X:1
T:Wilt heden nu treden
T:André Vierendeels
T:Source : Melody by A.Valerius---Nederlandtsche Gedenck-Clanck---1625 Editor : André Vierendeels (10/04/18)
T:Wilt heden nu treden
T:©
T:©
C:André Vierendeels
Z:©
%%score [ 1 2 3 4 ]
L:1/8
Q:1/4=90
M:3/4
K:C
V:1 treble nm="Soprano" snm="S"
V:2 treble nm="Alto" snm="A"
V:3 treble-8 nm="Tenor" snm="T"
V:4 bass nm="Bass" snm="B"
V:1
 z4 G2 | G3 A G2 | E3 F G2 | F3 E D2 | E2 C2 G2 | G3 A B2 | c3 d B2 | A3 G A2 | G4 G2 | G3 A B2 | %10
w: 1)Wilt|he- den nu|tre- den voor|God _ den|He- re, Hem|bo- ven al|lo- ven van|her- * ten|zeer, en|ma- * ken|
w: 2)Ter|e- ren ons|He- ren wilt|al _ uw|da- gen, dit|won- der bij-|zon- der ge-|den- * ken|toch, maakt|u _ O|
 c4 G2 | G3 A FG | E2 C2 F2 | F3 G AF | G3 F E2 | F2 D4 | C4 z2 |] %17
w: groot zijns|le- ven na- mens|e- re, die|daar nu on- zen|vij- * and|slaat ter-|neer.|
w: mens, voor|God steeds wel te|dra- gen, doet|ie- der recht en|wacht _ u|voor be-|drog.|
V:2
 z4 D2 | E3 F D2 | C3 C E2 | C3 C D2 | C2 C2 D2 | E3 F G2 | G3 F G2 | F3 G F2 | D4 E2 | D3 F G2 | %10
w: 1)Wilt|he- den nu|tre- den voor|Gor _ den|He- re, Hem|bo- ven al|lo- ven van|her- * ten|zeer, en|ma- * ken|
w: 2)Ter|e- ren ons|He- ren wilt|al _ uw|da- gen, dit|won- der bij-|zon- der ge-|den- * ken|toch, maakt|u _ O|
 G4 G2 | D3 F DD | C2 C2 D2 | D3 E FF | E3 F C2 | C2 B,4 | C4 z2 |] %17
w: groot zijns|le- ven na- mens|e- re, die|daar nu on- zen|vij- * and|slaat ter-|neer.|
w: mens, voor|God steeds wel te|dra- gen, doet|ie- der recht en|wacht _ u|voor be-|drog.|
V:3
 z4 B2 | c3 A B2 | G3 A c2 | A3 G B2 | G2 G2 B2 | c3 c G2 | c3 A G2 | c4 d2 | B4 c2 | d4 d2 | %10
w: 1)Wilt|he- den nu|tre- den voor|God _ den|He- re, Hem|bo- ven al|lo- ven van|her ten|zeer, en|ma- ken|
w: 2)Ter|e- ren ons|He- ren wilt|al _ uw|da- gen, dit|won- der bij-|zon- der ge-|den- ken|toch, maakt|u, O|
 c4 c2 | B3 A AB | G2 G2 A2 | A3 G AA | G3 A G2 | F2 G4 | G4 z2 |] %17
w: groot zijns|le- ven na- mens|e- re, die|daar nu on- zen|vij- * and|slaat ter-|neer.|
w: mens, voor|God steeds wel te|dra- gen, doet|ie- der recht en|wacht _ u|voor be-|drog.|
V:4
 z4 G,2 | C,3 D, G,,2 | C,3 F,, C,2 | F,3 E, G,2 | C,2 C,2 G,2 | C,3 F, G,2 | E,3 D, G,2 | %7
w: 1)Wilt|he- den nu|tre- den voor|God _ den|He- re, Hem|bo- ven al|lo- ven van|
w: 2)Ter|e- ren ons|He- ren wilt|al _ uw|da- gen, dit|won- der bij-|zon- der ge-|
 F,3 C, D,2 | G,4 C,2 | G,3 D, G,2 | C,4 C,2 | G,3 D, D,G, | C,2 E,2 D,2 | D,3 C, F,F, | %14
w: her- * ten|zeer, ne|ma- * ken|groor zijns|le- ven na- mens|e- re, die|daar nu on- zen|
w: den- * ken|toch, maakt|u _ O|mens, voor|God steeds wel te|dra- gen, doet|ie- der recht en|
 C,3 D, C,2 | A,,2 G,,4 | C,4 z2 |] %17
w: vuj- * and|slaat ter-|neer.|
w: wacht _ u|voor be-|drog.|

